!!!OTL: Von den drei Schneidern.
!!!OTL-incipit: ES KAMEN DREI SCHNEIDER WOHL AN DEN RHEIN
!!!COM: Volksweise
!!!ARE: Europa, Mitteleuropa, Deutschland
!!!SCT: F0852
!!!TXL: @@DE
!!!YEM: Copyright 1995, estate of Helmut Schaffrath.
**kern	**text
*ICvox	*
*clefG2	*
*M6/8	*
*k[b-e-]	*
*B-:	*
{8f	1._Es
=1	=1
8f	kamen
8d	.
8f	drei
8.b-/	Schneiter
16b-/	.
8b-/	wohl
=2	=2
8.b-/	an
16a	.
8b-/	den
4cc}	Rhein
{8cc	und
=3	=3
8dd	kehrten
8dd	.
8cc	beim
8dd	Gaſtwirth
8dd	.
8cc	ʒu
=4	=4
8.b-	Jn-
16cc	-gelheim
8dd	.
4cc}	ein,
{16fL	am
16aJ	.
=5	=5
4.cc	Rhein,
4r	.
8c	am
=6	=6
4.f	Rhein.
4r}	.
{8f	Sie
=7	=7
8.dd	hat-
16cc	-ten
8b-	im
8b-	Sack
8a	kei-
8g	-nen
=8	=8
4f	Heller
8e-	.
4d}	mehr,
{8f	doch
=9	=9
8.b-	dür-
16b-	-ſte-
8b-	-te
8b-	Je-
8b-	-den
8b-	von
=10	=10
(8ccL	ih-
8b-J)	.
8cc	-nen
4dd}	ſehr
{16ee-L	nach
16ggJ	.
=11	=11
4.ff	Wein,
4r	.
16aL	nach
16ccJ	.
=12	=12
4.b-/	Wein.
4r}	.
==	==
!!!AGN: erzaehlendes Volks - Lied, Ballade, Spott
!!!ONB: ESAC (Essen Associative Code) Database: FINK
!!!AMT: compound duple
!!!AIN: vox
!!!EED: Helmut Schaffrath
!!!EEV: 1.0
!!!GTL: Romanzen und Balladen
!!Text: Volkslied
!!!source: Musikalischer Hausschatz der Deutschen. Eine Sammlung von über 1000 Liedern und Gesängen mit Singstimmen und Klavierbegleitung. Leipzig, Litterarisches Verlags-Haus.
!!!page: 608
!!!URL-scan: https://www.digitale-sammlungen.de/en/view/bsb11144622?page=544
!!!ENC: Anna Maria Matuszewska
!!!EEV: 2024/08/07
*-	*-
